!!!COM: Mozart, Wolfgang Amadeus
!!!OTL: Musikalische Würfelspiele, Kontre-Tänze
!!!SCA: K<sup>6</sup> Anh. C30.01 (K<sup>3</sup> Anh. 294d)
**kern	**kern
*staff2	*staff2
*clefF4	*clefG2
*M2/4	*M2/4
*MM110	*MM110
*>[A,A1,A,A2,B]	*>[A,A1,A,A2,B]
*>norep[A,A2,B]	*>norep[A,A2,B]
*>A	*>A
=7	=7
4C	8cc
.	8cc
4C	8ee
.	8ee
=152	=152
4C	8gg
.	16ccc
.	16gg
4r	8ee
.	8cc
=112	=112
4G	8ff
.	8dd
4GG	8b
.	8g
=15	=15
4C	16cc
.	16ee
.	16gg
.	16ee
4C	8cc
.	8cc
=43	=43
4D	16dd
.	16cc#
.	16dd
.	16ee
4C 4D	16ff#
.	16gg
.	16aa
.	16ff#
=30	=30
4BB 4G	8gg
.	8dd
4BB	(8dd
.	8dd#)
=73	=73
4C	8ee
.	8gg
4D	8ff#
.	8aa
=167	=167
*>A1	*>A1
4GG	4g 4b 4gg
16G	4r
16F	.
16E	.
16D	.
=167:|!	=167:|!
*>A2	*>A2
4GG	4g 4b 4gg
16GG	4r
16AA	.
16BB	.
16C#	.
=93||	=93||
*>B	*>B
16D	4dd
16F#	.
16A	.
16F#	.
16C	8aa
16F#	.
16A	8ff#
16C	.
=133	=133
16BB	8dd
16D	.
16G	4gg
16D	.
16BB	.
16D	.
16G	8bb
16D	.
=87	=87
4C	8ee
.	16cc
.	16ee
4r	8gg
.	16ee
.	16cc
=19	=19
4GG	16dd
.	16b
.	16cc
.	16a
4r	16g
.	16gg
.	16ff
.	16dd
=94	=94
16C	8cc
16E	.
16G	8ee
16E	.
16C	8gg
16E	.
16G	8ee
16E	.
=32	=32
4C	8ccc
.	8gg
4r	8ee
.	8cc
=154	=154
4G	8ff
.	8dd
4GG	8cc
.	8b
=171	=171
4C	4cc
4CC	4c
==	==
*-	*-
